UI/Tools/SVG/guides_solid_16px.svg

<svg xmlns="http://www.w3.org/2000/svg" width="16" height="16" viewBox="0 0 16 16"><rect width="16" height="16" style="fill:none"/><path d="M15,5V3H13V1H11V3H5V1H3V3H1V5H3v6H1v2H3v2H5V13h6v2h2V13h2V11H13V5Zm-4,6H5V5h6Z"/></svg>

<svg width="16" height="16" viewBox="0 0 16 16" fill="none" xmlns="http://www.w3.org/2000/svg">
<path d="M15 5V3H13V1H11V3H5V1H3V3H1V5H3V11H1V13H3V15H5V13H11V15H13V13H15V11H13V5H15ZM11 11H5V5H11V11Z" fill="#0F1621"/>
</svg>
